32x32/emblems/Nextcloud_error.svg

<svg height="32" width="32" xmlns="http://www.w3.org/2000/svg"><circle cx="25" cy="25" fill="#f44336" r="7"/><path d="m22.28 21 2.72 2.72 2.72-2.72 1.28 1.28-2.72 2.72 2.72 2.72-1.28 1.28-2.72-2.72-2.72 2.72-1.28-1.28 2.72-2.72-2.72-2.72z" fill="#f4f4f7"/></svg>

<svg height="32" width="32" xmlns="http://www.w3.org/2000/svg">
    <circle cx="25" cy="25" fill="#f44336" r="7"/>
    <path d="M22.28 21 25 23.72 27.72 21 29 22.28 26.28 25 29 27.72 27.72 29 25 26.28 22.28 29 21 27.72 23.72 25 21 22.28z" fill="#f4f4f7"/>
</svg>
